assets/Button-close-modo-noc.svg

<?xml version="1.0" encoding="UTF-8"?>
<svg width="40px" height="40px" viewBox="0 0 40 40" version="1.1" xmlns="http://www.w3.org/2000/svg" xmlns:xlink="http://www.w3.org/1999/xlink">
    <!-- Generator: Sketch 63.1 (92452) - https://sketch.com -->
    <title>Button-close-modo-noc</title>
    <desc>Created with Sketch.</desc>
    <defs>
        <path d="M0.292893219,0.292893219 C0.683417511,-0.0976310729 1.31658249,-0.0976310729 1.70710678,0.292893219 L1.70710678,0.292893219 L7,5.585 L12.2928932,0.292893219 C12.6533772,-0.0675907428 13.2206082,-0.0953202783 13.6128994,0.209704612 L13.7071068,0.292893219 C14.0976311,0.683417511 14.0976311,1.31658249 13.7071068,1.70710678 L13.7071068,1.70710678 L8.415,7 L13.7071068,12.2928932 C14.0675907,12.6533772 14.0953203,13.2206082 13.7902954,13.6128994 L13.7071068,13.7071068 C13.3165825,14.0976311 12.6834175,14.0976311 12.2928932,13.7071068 L12.2928932,13.7071068 L7,8.415 L1.70710678,13.7071068 C1.34662282,14.0675907 0.779391764,14.0953203 0.387100557,13.7902954 L0.292893219,13.7071068 C-0.0976310729,13.3165825 -0.0976310729,12.6834175 0.292893219,12.2928932 L0.292893219,12.2928932 L5.585,7 L0.292893219,1.70710678 C-0.0675907428,1.34662282 -0.0953202783,0.779391764 0.209704612,0.387100557 Z" id="path-1"></path>
    </defs>
    <g id="GIFOS" stroke="none" stroke-width="1" fill="none" fill-rule="evenodd">
        <g id="16-UI-Kit-Modo-Nocturno" transform="translate(-176.000000, -2847.000000)">
            <g id="Button-close-modo-noc" transform="translate(176.000000, 2847.000000)">
                <rect id="Rectangle-Copy-8" stroke="#FFFFFF" fill-rule="nonzero" x="0.5" y="0.5" width="39" height="39"></rect>
                <g id="close" transform="translate(13.000000, 13.000000)">
                    <mask id="mask-2" fill="white">
                        <use xlink:href="#path-1"></use>
                    </mask>
                    <use id="Combined-Shape" fill="#FFFFFF" fill-rule="nonzero" xlink:href="#path-1"></use>
                </g>
            </g>
        </g>
    </g>
</svg>

<?xml version="1.0" encoding="utf-8"?>
<!-- Generator: Adobe Illustrator 24.1.0, SVG Export Plug-In . SVG Version: 6.00 Build 0)  -->
<svg version="1.1" id="Capa_1" xmlns="http://www.w3.org/2000/svg" xmlns:xlink="http://www.w3.org/1999/xlink" x="0px" y="0px"
	 viewBox="0 0 14 14" style="enable-background:new 0 0 14 14;" xml:space="preserve">
<style type="text/css">
	.st0{fill:#FFFFFF;}
</style>
<g id="GIFOS">
	<g id="_x30_0-UI-Kit" transform="translate(-669.000000, -2993.000000)">
		<g id="close" transform="translate(669.000000, 2993.000000)">
			<g>
				<path id="path-1_1_" class="st0" d="M0.3,0.3c0.4-0.4,1-0.4,1.4,0l0,0L7,5.6l5.3-5.3c0.4-0.4,0.9-0.4,1.3-0.1l0.1,0.1
					c0.4,0.4,0.4,1,0,1.4l0,0L8.4,7l5.3,5.3c0.4,0.4,0.4,0.9,0.1,1.3l-0.1,0.1c-0.4,0.4-1,0.4-1.4,0l0,0L7,8.4l-5.3,5.3
					c-0.4,0.4-0.9,0.4-1.3,0.1l-0.1-0.1c-0.4-0.4-0.4-1,0-1.4l0,0L5.6,7L0.3,1.7C-0.1,1.3-0.1,0.8,0.3,0.3L0.3,0.3z"/>
			</g>
		</g>
	</g>
</g>
</svg>
